X: 23165
T: Le Petit Accordeon
R: waltz
M: 3/4
K: Dminor
A,4|:SF6|ED^CDEF|D2 DEFE|D2F2A2|B6|AG^FGAB|G2 GABA|G6|
^c6|c ABcde|f2f efg|fdAFDA,|1 G6|FEDEFD|E6|A,6:|2 F6|E4FE|D6|"Trio"z4||
|:EFGABA|GFECDE|F2 FGAB|c2c AGF|EFGABA|GFECDE|
[1 F2 FGAB|c2c AGF:|2 F2 FGAG|F2A,2A,2||
K:Dmaj
F2G2|:[F6A6]|[G4B4][G2_B2]|[F6A6]|[F2A2] d2e2|f2e2d2|c2B2A2|GFEDEF|G4A2|[E6B6]|[E4c4][E2=c2]|
[E6B6]|[E2B2] e2f2|g2f2e2|d2c2B2|A2 FAdf|a2 F2G2|[F6A6]|[G4B4][G2_B2]|[F6A6]|[F2A2] d2e2|
f2e2d2|b4a2|g6|g2 gaba|gdB gdB|gdB gdB|fdA fdA|fdA fdA|
ecA ecA|ecA ecA|d2 dcde|d2z2|

